src/assets/duotone/Simcard.svg

<svg width="24" height="24" viewBox="0 0 24 24"  xmlns="http://www.w3.org/2000/svg">
<path opacity="0.4" d="M19.54 6.53976L16.47 3.46976C15.53 2.52976 14.26 2.00977 12.93 2.00977H8C5 2.00977 3 4.00977 3 7.00977V17.0098C3 20.0098 5 22.0098 8 22.0098H16C19 22.0098 21 20.0098 21 17.0098V10.0797C21 8.73974 20.47 7.46976 19.54 6.53976Z" />
<path d="M9.49994 18.7504C9.30994 18.7504 9.11994 18.6804 8.96994 18.5304L6.96994 16.5304C6.67994 16.2404 6.67994 15.7604 6.96994 15.4704L8.96994 13.4704C9.25994 13.1804 9.73994 13.1804 10.0299 13.4704C10.3199 13.7604 10.3199 14.2404 10.0299 14.5304L8.55994 16.0004L10.0299 17.4704C10.3199 17.7604 10.3199 18.2404 10.0299 18.5304C9.87994 18.6804 9.68994 18.7504 9.49994 18.7504Z" />
<path d="M14.4999 18.7504C14.3099 18.7504 14.1199 18.6804 13.9699 18.5304C13.6799 18.2404 13.6799 17.7604 13.9699 17.4704L15.4399 16.0004L13.9699 14.5304C13.6799 14.2404 13.6799 13.7604 13.9699 13.4704C14.2599 13.1804 14.7399 13.1804 15.0299 13.4704L17.0299 15.4704C17.3199 15.7604 17.3199 16.2404 17.0299 16.5304L15.0299 18.5304C14.8799 18.6804 14.6899 18.7504 14.4999 18.7504Z" />
</svg>

<?xml version="1.0" encoding="UTF-8"?>
<svg width="24" height="24" viewBox="0 0 24 24" xmlns="http://www.w3.org/2000/svg">
 <path d="m19.54 6.5398-3.07-3.07c-0.94-0.94-2.21-1.46-3.54-1.46h-4.93c-3 0-5 2-5 5v10c0 3 2 5 5 5h8c3 0 5-2 5-5v-6.9301c0-1.34-0.53-2.6099-1.46-3.5399z" opacity=".4"/>
 <path d="m9.4999 18.75c-0.19 0-0.38-0.07-0.53-0.22l-2-2c-0.29-0.29-0.29-0.77 0-1.06l2-2c0.29-0.29 0.77-0.29 1.06 0 0.29 0.29 0.29 0.77 0 1.06l-1.47 1.47 1.47 1.47c0.29 0.29 0.29 0.77 0 1.06-0.14996 0.15-0.33996 0.22-0.52996 0.22z"/>
 <path d="m14.5 18.75c-0.19 0-0.38-0.07-0.53-0.22-0.29-0.29-0.29-0.77 0-1.06l1.47-1.47-1.47-1.47c-0.29-0.29-0.29-0.77 0-1.06s0.77-0.29 1.06 0l2 2c0.29 0.29 0.29 0.77 0 1.06l-2 2c-0.15 0.15-0.34 0.22-0.53 0.22z"/>
</svg>
